X:7835
T:Le chat \`a Jeanette
C:anon.
O:France
Z:Transcribed by Frank Nordberg - http://www.musicaviva.com
F:http://abc.musicaviva.com/tunes/france/chat-a-jeanette.abc
M:C
L:1/4
K:Cm
CGGF|G2ED/E/|FFGF|EDC2|
CEDE|FED2|CEDE|FED2|
CGGF|G2ED/E/|FFGF|EDC2|]
W:
W:
W:  From Musica Viva - http://www.musicaviva.com
W:  the Internet center for free sheet music downloads.
